%
(Left Side Block)
(P/N=   Rev. 1)
(Cycle Time= 0 HRS.  2 MIN. 38 SEC.)
(Date Posted  11/18/2022  09:50 )

(WCS = G)

(STOCK - NYLON)

(TOOL LIST)
(T01 = 1/4 EM CRB 3FL 1.5  LOC)
(T02 = #3 60DEG HSS CENTERDRILL)
(T03 = F SCREW MACH DRILL)

G17 G40 G49 G50 G54 G64 G80 G90 G91.1 G94
G20
G30

N10 ( Contour Mill1 )
(1/4 EM CRB 3FL 1.5  LOC)
M6 T1 G43 H01
S3000 M3 M9
G54
G0 X-.9675 Y-.075
Z1.4375
Z.5375
G1 Z.3375 F7.5
X-.393 F15.
Y.075
X-.9675
Y-.075
G0 Z.5375
Z.4375
G1 Z.248 F7.5
X-.393 F15.
Y.075
X-.9675
Y-.075
G0 Z.5375
Z.348
G1 Z.1585 F7.5
X-.393 F15.
Y.075
X-.9675
Y-.075
G0 Z.5375
Z.2585
G1 Z.069 F7.5
X-.393 F15.
Y.075
X-.9675
Y-.075
G0 Z.5375
Z.169
G1 Z-.0205 F7.5
X-.393 F15.
Y.075
X-.9675
Y-.075
G0 Z.5375
Z.0795
G1 Z-.11 F7.5
X-.393 F15.
Y.075
X-.9675
Y-.075
G0 Z.5375
Z-.01
G1 Z-.1995 F7.5
X-.393 F15.
Y.075
X-.9675
Y-.075
G0 Z.5375
Z1.4375
X.9675 Y.075
Z.5375
G1 Z.3375 F7.5
X.393 F15.
Y-.075
X.9675
Y.075
G0 Z.5375
Z.4375
G1 Z.248 F7.5
X.393 F15.
Y-.075
X.9675
Y.075
G0 Z.5375
Z.348
G1 Z.1585 F7.5
X.393 F15.
Y-.075
X.9675
Y.075
G0 Z.5375
Z.2585
G1 Z.069 F7.5
X.393 F15.
Y-.075
X.9675
Y.075
G0 Z.5375
Z.169
G1 Z-.0205 F7.5
X.393 F15.
Y-.075
X.9675
Y.075
G0 Z.5375
Z.0795
G1 Z-.11 F7.5
X.393 F15.
Y-.075
X.9675
Y.075
G0 Z.5375
Z-.01
G1 Z-.1995 F7.5
X.393 F15.
Y-.075
X.9675
Y.075
G0 Z.5375
Z1.4375
M5 M9
G30

N20 ( Center Drill1 )
M1
(#3 60DEG HSS CENTERDRILL)
M6 T2 G43 H02
S1000 M3 M9
G54
G0 X0 Y0
Z1.4375
G82 G98 R.5375 Z.3375 P1. F10.
G80
G0 Z1.4375
M5 M9
G30

N30 ( Drill1 )
M1
(F SCREW MACH DRILL)
M6 T3 G43 H03
S1000 M3 M9
G54
G0 X0 Y0
Z1.4375
G83 G98 R.5375 Z.3375 Q.15 F10.
G80
G0 Z1.4375

N40 ( Drill1 )
M3
G83 G98 R.5375 Z-.5625 Q.15 F10.
G80
G0 Z1.4375
M5 M9

G30
G0 G53 Z0
G0 G53 X7. Y0.
M30
%
