%
(Left Link G-code)
(P/N=   Rev. 1)
(Cycle Time= 0 HRS.  5 MIN. 38 SEC.)
(Date Posted  10/23/2022  20:22 )

(WCS = G)

(STOCK - NYLON)

(TOOL LIST)
(T01 = 1/8 EM CRB 4FL 1/2 LOC)

G17 G40 G49 G50 G54 G64 G80 G90 G91.1 G94
G20
G30

N10 ( Rough Mill1 )
(1/8 EM CRB 4FL 1/2 LOC)
M6 T1 G43 H01
S3000 M3 M9
G54
G0 X0 Y0
Z1.0125
Z.1125
G1 Z-.0875 F3.75
X.0425 F7.5
G3 I-0.0425 J0 F15.
I-0.0425 J0
G1 X0
G0 Z.1125
Z.0125
G1 Z-.1756 F3.75
X.0425 F7.5
G3 I-0.0425 J0 F15.
I-0.0425 J0
G1 X0
G0 Z.1125
Z-.0756
G1 Z-.2637 F3.75
X.0425 F7.5
G3 I-0.0425 J0 F15.
I-0.0425 J0
G1 X0
G0 Z.1125
Z-.1637
G1 Z-.3519 F3.75
X.0425 F7.5
G3 I-0.0425 J0 F15.
I-0.0425 J0
G1 X0
G0 Z.1125
Z-.2519
G1 Z-.44 F3.75
X.0425 F7.5
G3 I-0.0425 J0 F15.
I-0.0425 J0
G1 X0
G0 Z.1125
Z-.34
G1 Z-.45 F3.75
X.0425 F7.5
G3 I-0.0425 J0 F15.
I-0.0425 J0
G1 X0
G0 Z.1125
Z1.0125
X3.
Z.1125
G1 Z-.0875 F3.75
X3.0425 F7.5
G3 I-0.0425 J0 F15.
I-0.0425 J0
G1 X3.
G0 Z.1125
Z.0125
G1 Z-.1756 F3.75
X3.0425 F7.5
G3 I-0.0425 J0 F15.
I-0.0425 J0
G1 X3.
G0 Z.1125
Z-.0756
G1 Z-.2637 F3.75
X3.0425 F7.5
G3 I-0.0425 J0 F15.
I-0.0425 J0
G1 X3.
G0 Z.1125
Z-.1637
G1 Z-.3519 F3.75
X3.0425 F7.5
G3 I-0.0425 J0 F15.
I-0.0425 J0
G1 X3.
G0 Z.1125
Z-.2519
G1 Z-.44 F3.75
X3.0425 F7.5
G3 I-0.0425 J0 F15.
I-0.0425 J0
G1 X3.
G0 Z.1125
Z-.34
G1 Z-.45 F3.75
X3.0425 F7.5
G3 I-0.0425 J0 F15.
I-0.0425 J0
G1 X3.
G0 Z.1125
Z1.0125

N20 ( Contour Mill1 )
M3
X1.7142 Y.3125
Z.1125
G1 Z-.0875 F3.75
X3. F15.
G2 Y-.3125 I0 J-0.3125
G1 X.463
G2 X.3644 Y-.4234 I-0.463 J0.3125
X.124 Y-.4844 I-0.1241 J-0.0151
X-.124 I-0.124 J-0.0156
X-.3415 Y-.3652 I-0.1163 J0.0459
X-.475 Y-.1561 I-0.0799 J0.0961
X-.4916 Y.0914 I-0.0239 J0.1227
X-.4468 Y.3353 I0.038 J0.1191
X.463 Y.3125 I0.4468 J-0.3353
G1 X1.7142
G0 Z.1125
Z.0125
G1 Z-.175 F3.75
X3. F15.
G2 Y-.3125 I0 J-0.3125
G1 X.463
G2 X.3644 Y-.4234 I-0.463 J0.3125
X.124 Y-.4844 I-0.1241 J-0.0151
X-.124 I-0.124 J-0.0156
X-.3415 Y-.3652 I-0.1163 J0.0459
X-.475 Y-.1561 I-0.0799 J0.0961
X-.4916 Y.0914 I-0.0239 J0.1227
X-.4468 Y.3353 I0.038 J0.1191
X.463 Y.3125 I0.4468 J-0.3353
G1 X1.7142
G0 Z.1125
Z-.075
G1 Z-.2625 F3.75
X3. F15.
G2 Y-.3125 I0 J-0.3125
G1 X.463
G2 X.3644 Y-.4234 I-0.463 J0.3125
X.124 Y-.4844 I-0.1241 J-0.0151
X-.124 I-0.124 J-0.0156
X-.3415 Y-.3652 I-0.1163 J0.0459
X-.475 Y-.1561 I-0.0799 J0.0961
X-.4916 Y.0914 I-0.0239 J0.1227
X-.4468 Y.3353 I0.038 J0.1191
X.463 Y.3125 I0.4468 J-0.3353
G1 X1.7142
G0 Z.1125
Z-.1625
G1 Z-.35 F3.75
X3. F15.
G2 Y-.3125 I0 J-0.3125
G1 X2.9899
G0 Z.1125
X2.7649
G1 Z-.35 F3.75
X.9636 F15.
G0 Z.1125
X.7386
G1 Z-.35 F3.75
X.463 F15.
G2 X.3644 Y-.4234 I-0.463 J0.3125
X.124 Y-.4844 I-0.1241 J-0.0151
X-.124 I-0.124 J-0.0156
X-.3415 Y-.3652 I-0.1163 J0.0459
X-.475 Y-.1561 I-0.0799 J0.0961
X-.4916 Y.0914 I-0.0239 J0.1227
X-.4468 Y.3353 I0.038 J0.1191
X.463 Y.3125 I0.4468 J-0.3353
G1 X1.4691
G0 Z.1125
X1.6941
G1 Z-.35 F3.75
X1.7142 F15.
G0 Z.1125
Z-.25
G1 Z-.4375 F3.75
X3. F15.
G2 Y-.3125 I0 J-0.3125
G1 X2.9899
G0 Z.1125
X2.7649
G1 Z-.4375 F3.75
X.9636 F15.
G0 Z.1125
X.7386
G1 Z-.4375 F3.75
X.463 F15.
G2 X.3644 Y-.4234 I-0.463 J0.3125
X.124 Y-.4844 I-0.1241 J-0.0151
X-.124 I-0.124 J-0.0156
X-.3415 Y-.3652 I-0.1163 J0.0459
X-.475 Y-.1561 I-0.0799 J0.0961
X-.4916 Y.0914 I-0.0239 J0.1227
X-.4468 Y.3353 I0.038 J0.1191
X.463 Y.3125 I0.4468 J-0.3353
G1 X1.4691
G0 Z.1125
X1.6941
G1 Z-.4375 F3.75
X1.7142 F15.
G0 Z.1125
Z1.0125
M5 M9

G30
G0 G53 Z0
G0 G53 X7. Y0.
M30
%
