%
(Right Side Block)
(P/N=   Rev. 1)
(Cycle Time= 0 HRS.  2 MIN. 45 SEC.)
(Date Posted  11/18/2022  10:04 )

(WCS = G)

(STOCK - NYLON)

(TOOL LIST)
(T01 = 1/4 EM CRB 3FL 1.5  LOC)
(T02 = #3 60DEG HSS CENTERDRILL)
(T03 = #12 SCREW MACH DRILL)

G17 G40 G49 G50 G54 G64 G80 G90 G91.1 G94
G20
G30

N10 ( Contour Mill1 )
(1/4 EM CRB 3FL 1.5  LOC)
M6 T1 G43 H01
S3000 M3 M9
G54
G0 X-.9675 Y-.075
Z1.875
Z.975
G1 Z.75 F7.5
X-.393 F15.
Y.075
X-.9675
Y-.075
G0 Z.975
Z.85
G1 Z.6476 F7.5
X-.393 F15.
Y.075
X-.9675
Y-.075
G0 Z.975
Z.7476
G1 Z.5452 F7.5
X-.393 F15.
Y.075
X-.9675
Y-.075
G0 Z.975
Z.6452
G1 Z.4428 F7.5
X-.393 F15.
Y.075
X-.9675
Y-.075
G0 Z.975
Z.5428
G1 Z.3404 F7.5
X-.393 F15.
Y.075
X-.9675
Y-.075
G0 Z.975
Z.4404
G1 Z.238 F7.5
X-.393 F15.
Y.075
X-.9675
Y-.075
G0 Z.975
Z1.875
X.9675 Y.075
Z.975
G1 Z.75 F7.5
X.393 F15.
Y-.075
X.9675
Y.075
G0 Z.975
Z.85
G1 Z.6476 F7.5
X.393 F15.
Y-.075
X.9675
Y.075
G0 Z.975
Z.7476
G1 Z.5452 F7.5
X.393 F15.
Y-.075
X.9675
Y.075
G0 Z.975
Z.6452
G1 Z.4428 F7.5
X.393 F15.
Y-.075
X.9675
Y.075
G0 Z.975
Z.5428
G1 Z.3404 F7.5
X.393 F15.
Y-.075
X.9675
Y.075
G0 Z.975
Z.4404
G1 Z.238 F7.5
X.393 F15.
Y-.075
X.9675
Y.075
G0 Z.975
Z1.875
M5 M9
G30

N20 ( Center Drill1 )
M1
(#3 60DEG HSS CENTERDRILL)
M6 T2 G43 H02
S1000 M3 M9
G54
G0 X0 Y0
Z1.875
G82 G98 R.975 Z.775 P1. F2.6
G80
G0 Z1.875
M5 M9
G30

N30 ( Drill1 )
M1
(#12 SCREW MACH DRILL)
M6 T3 G43 H03
S1000 M3 M9
G54
G0 X0 Y0
Z1.875
G83 G98 R.975 Z-.125 Q.1 F2.7
G80
G0 Z1.875
M5 M9

G30
G0 G53 Z0
G0 G53 X7. Y0.
M30
%
