%
(Right Link Gcode)
(P/N=   Rev. 1)
(Cycle Time= 0 HRS.  4 MIN. 48 SEC.)
(Date Posted  10/21/2022  12:54 )

(WCS = G)

(STOCK - NYLON)

(TOOL LIST)
(T01 = 1/8 EM CRB 4FL 1/2 LOC)

G17 G40 G49 G50 G54 G64 G80 G90 G91.1 G94
G20
G30

N10 ( Rough Mill1 )
(1/8 EM CRB 4FL 1/2 LOC)
M6 T1 G43 H01
S3000 M3 M9
G54
G0 X0 Y0
Z1.0125
Z.1125
G1 Z-.0875 F7.5
X.0425
G3 I-0.0425 J0 F15.
I-0.0425 J0
G1 X0
G0 Z.1125
Z.0125
G1 Z-.1756 F7.5
X.0425
G3 I-0.0425 J0 F15.
I-0.0425 J0
G1 X0
G0 Z.1125
Z-.0756
G1 Z-.2637 F7.5
X.0425
G3 I-0.0425 J0 F15.
I-0.0425 J0
G1 X0
G0 Z.1125
Z-.1637
G1 Z-.3519 F7.5
X.0425
G3 I-0.0425 J0 F15.
I-0.0425 J0
G1 X0
G0 Z.1125
Z-.2519
G1 Z-.44 F7.5
X.0425
G3 I-0.0425 J0 F15.
I-0.0425 J0
G1 X0
G0 Z.1125
Z-.34
G1 Z-.45 F7.5
X.0425
G3 I-0.0425 J0 F15.
I-0.0425 J0
G1 X0
G0 Z.1125
Z1.0125
X3.
Z.1125
G1 Z-.0875 F7.5
X3.0425
G3 I-0.0425 J0 F15.
I-0.0425 J0
G1 X3.
G0 Z.1125
Z.0125
G1 Z-.1756 F7.5
X3.0425
G3 I-0.0425 J0 F15.
I-0.0425 J0
G1 X3.
G0 Z.1125
Z-.0756
G1 Z-.2637 F7.5
X3.0425
G3 I-0.0425 J0 F15.
I-0.0425 J0
G1 X3.
G0 Z.1125
Z-.1637
G1 Z-.3519 F7.5
X3.0425
G3 I-0.0425 J0 F15.
I-0.0425 J0
G1 X3.
G0 Z.1125
Z-.2519
G1 Z-.44 F7.5
X3.0425
G3 I-0.0425 J0 F15.
I-0.0425 J0
G1 X3.
G0 Z.1125
Z-.34
G1 Z-.45 F7.5
X3.0425
G3 I-0.0425 J0 F15.
I-0.0425 J0
G1 X3.
G0 Z.1125
Z1.0125

N20 ( Contour Mill1 )
M3
X1.7315 Y.3125
Z.1125
G1 Z-.0875 F7.5
X3. F15.
G2 Y-.3125 I0 J-0.3125
G1 X.463
G2 X-.4405 Y-.3435 I-0.463 J0.3125
X-.4536 Y-.2105 I0.0986 J0.0769
X-.4989 Y.0334 I-0.038 J0.1191
X-.4214 Y.269 I0.0239 J0.1227
X-.2403 Y.4385 I0.0799 J0.0961
X0 Y.5 I0.1163 J0.0459
X.2403 Y.4385 I0.124 J-0.0156
X.3722 Y.4165 I0.0486 J-0.1152
X.463 Y.3125 I-0.3707 J-0.4153
G1 X1.7315
G0 Z.1125
Z.0125
G1 Z-.175 F7.5
X3. F15.
G2 Y-.3125 I0 J-0.3125
G1 X.463
G2 X-.4405 Y-.3435 I-0.463 J0.3125
X-.4536 Y-.2105 I0.0986 J0.0769
X-.4989 Y.0334 I-0.038 J0.1191
X-.4214 Y.269 I0.0239 J0.1227
X-.2403 Y.4385 I0.0799 J0.0961
X0 Y.5 I0.1163 J0.0459
X.2403 Y.4385 I0.124 J-0.0156
X.3722 Y.4165 I0.0486 J-0.1152
X.463 Y.3125 I-0.3707 J-0.4153
G1 X1.7315
G0 Z.1125
Z-.075
G1 Z-.2625 F7.5
X3. F15.
G2 Y-.3125 I0 J-0.3125
G1 X.463
G2 X-.4405 Y-.3435 I-0.463 J0.3125
X-.4536 Y-.2105 I0.0986 J0.0769
X-.4989 Y.0334 I-0.038 J0.1191
X-.4214 Y.269 I0.0239 J0.1227
X-.2403 Y.4385 I0.0799 J0.0961
X0 Y.5 I0.1163 J0.0459
X.2403 Y.4385 I0.124 J-0.0156
X.3722 Y.4165 I0.0486 J-0.1152
X.463 Y.3125 I-0.3707 J-0.4153
G1 X1.7315
G0 Z.1125
Z-.1625
G1 Z-.35 F7.5
X3. F15.
G2 X3.0011 Y-.3125 I0 J-0.3125
G0 Z.1125
X2.7761
G1 Z-.35 F7.5
X.9868 F15.
G0 Z.1125
X.7618
G1 Z-.35 F7.5
X.463 F15.
G2 X-.4405 Y-.3435 I-0.463 J0.3125
X-.4536 Y-.2105 I0.0986 J0.0769
X-.4989 Y.0334 I-0.038 J0.1191
X-.4214 Y.269 I0.0239 J0.1227
X-.2403 Y.4385 I0.0799 J0.0961
X0 Y.5 I0.1163 J0.0459
X.2403 Y.4385 I0.124 J-0.0156
X.3722 Y.4165 I0.0486 J-0.1152
X.463 Y.3125 I-0.3707 J-0.4153
G1 X1.47
G0 Z.1125
X1.695
G1 Z-.35 F7.5
X1.7315 F15.
G0 Z.1125
Z-.25
G1 Z-.4375 F7.5
X3. F15.
G2 X3.0011 Y-.3125 I0 J-0.3125
G0 Z.1125
X2.7761
G1 Z-.4375 F7.5
X.9868 F15.
G0 Z.1125
X.7618
G1 Z-.4375 F7.5
X.463 F15.
G2 X-.4405 Y-.3435 I-0.463 J0.3125
X-.4536 Y-.2105 I0.0986 J0.0769
X-.4989 Y.0334 I-0.038 J0.1191
X-.4214 Y.269 I0.0239 J0.1227
X-.2403 Y.4385 I0.0799 J0.0961
X0 Y.5 I0.1163 J0.0459
X.2403 Y.4385 I0.124 J-0.0156
X.3722 Y.4165 I0.0486 J-0.1152
X.463 Y.3125 I-0.3707 J-0.4153
G1 X1.47
G0 Z.1125
X1.695
G1 Z-.4375 F7.5
X1.7315 F15.
G0 Z.1125
Z1.0125
M5 M9

G30
G0 G53 Z0
G0 G53 X7. Y0.
M30
%
