%
(Top_Bottom Block)
(P/N=   Rev. 1)
(Cycle Time= 0 HRS.  4 MIN. 32 SEC.)
(Date Posted  11/3/2022  22:12 )

(WCS = G)

(STOCK - NYLON)

(TOOL LIST)
(T01 = 1/4 EM CRB 3FL 1.5  LOC)

G17 G40 G49 G50 G54 G64 G80 G90 G91.1 G94
G20
G30

N10 ( Contour Mill1 )
(1/4 EM CRB 3FL 1.5  LOC)
M6 T1 G43 H01
S3000 M3 M8
G54
G0 X1.156 Y0
Z1.6875
Z.7875
G1 Z.5875 F7.5
Y.075 F15.
X-1.156
Y-.075
X1.156
Y0
G0 Z.7875
Z.6875
G1 Z.4943 F7.5
Y.075 F15.
X-1.156
Y-.075
X1.156
Y0
G0 Z.7875
Z.5943
G1 Z.4011 F7.5
Y.075 F15.
X-1.156
Y-.075
X1.156
Y0
G0 Z.7875
Z.5011
G1 Z.308 F7.5
Y.075 F15.
X-1.156
Y-.075
X1.156
Y0
G0 Z.7875
Z.408
G1 Z.2148 F7.5
Y.075 F15.
X-1.156
Y-.075
X1.156
Y0
G0 Z.7875
Z.3148
G1 Z.1216 F7.5
Y.075 F15.
X-1.156
Y-.075
X1.156
Y0
G0 Z.7875
Z.2216
G1 Z.0284 F7.5
Y.075 F15.
X-1.156
Y-.075
X1.156
Y0
G0 Z.7875
Z.1284
G1 Z-.0648 F7.5
Y.075 F15.
X-1.156
Y-.075
X1.156
Y0
G0 Z.7875
Z.0352
G1 Z-.158 F7.5
Y.075 F15.
X-1.156
Y-.075
X1.156
Y0
G0 Z.7875
Z-.058
G1 Z-.2511 F7.5
Y.075 F15.
X-1.156
Y-.075
X1.156
Y0
G0 Z.7875
Z-.1511
G1 Z-.3443 F7.5
Y.075 F15.
X-1.156
Y-.075
X1.156
Y0
G0 Z.7875
Z-.2443
G1 Z-.4375 F7.5
Y.075 F15.
X-1.156
Y-.075
X1.156
Y0
G0 Z.7875
Z1.6875
M5 M9

G30
G0 G53 Z0
G0 G53 X7. Y0.
M30
%
